src/assets/img/components/select.svg

<?xml version="1.0" encoding="UTF-8" standalone="no"?>
<svg width="121px" height="96px" viewBox="0 0 121 96" version="1.1" xmlns="http://www.w3.org/2000/svg" xmlns:xlink="http://www.w3.org/1999/xlink">
    <title>Select Component</title>
    <desc>Component</desc>
    <defs>
        <rect id="path-1" x="62" y="0" width="58" height="96"></rect>
        <mask id="mask-2" maskContentUnits="userSpaceOnUse" maskUnits="objectBoundingBox" x="0" y="0" width="58" height="96" fill="white">
            <use xlink:href="#path-1"></use>
        </mask>
    </defs>
    <g id="Page-1" stroke="none" stroke-width="1" fill="none" fill-rule="evenodd">
        <g id="Material-Internal-Landing-Page-(Components)" transform="translate(-379.000000, -1066.000000)">
            <g id="select" transform="translate(380.000000, 1066.000000)">
                <path d="M0.536956522,37.98 L97.5182722,37.98" id="underline" stroke="#00BCD4" stroke-width="2.8" stroke-linecap="square"></path>
                <path d="M4.90806452,21.57568 L65.8349534,21.57568" id="text" stroke="#CED2D4" stroke-width="11.708928" stroke-linecap="square"></path>
                <use id="drop-down" stroke="#CED2D4" mask="url(#mask-2)" stroke-width="2.8" fill="#F4F6F7" xlink:href="#path-1"></use>
                <rect fill="#00BCD4" x="62" y="30" width="58" height="17"></rect>
                <path d="M72.6486175,19.8410001 L95.007511,19.8410001 L97.4280111,19.8410001 L97.4280111,15 L95.007511,15 L72.6486175,15 L70.2281175,15 L70.2281175,19.8410001 L72.6486175,19.8410001 Z M72.6486175,40.8410001 L95.007511,40.8410001 L97.4280111,40.8410001 L97.4280111,36 L95.007511,36 L72.6486175,36 L70.2281175,36 L70.2281175,40.8410001 L72.6486175,40.8410001 Z M72.6486175,61.8410001 L95.007511,61.8410001 L97.4280111,61.8410001 L97.4280111,57 L95.007511,57 L72.6486175,57 L70.2281175,57 L70.2281175,61.8410001 L72.6486175,61.8410001 Z M72.6486175,81.8410001 L95.007511,81.8410001 L97.4280111,81.8410001 L97.4280111,77 L95.007511,77 L72.6486175,77 L70.2281175,77 L70.2281175,81.8410001 L72.6486175,81.8410001 Z" id="options" fill="#D8D8D8"></path>
            </g>
        </g>
    </g>
</svg>

<svg width="121" height="96" viewBox="0 0 121 96" xmlns="http://www.w3.org/2000/svg" xmlns:xlink="http://www.w3.org/1999/xlink"><defs><path id="a" d="M62 0h58v96H62z"/><mask id="b" x="0" y="0" width="58" height="96" fill="#fff"><use xlink:href="#a"/></mask></defs><g transform="translate(1)" fill="none" fill-rule="evenodd"><path d="M.537 37.98h96.981" stroke="#00BCD4" stroke-width="2.8" stroke-linecap="square"/><path d="M4.908 21.576h60.927" stroke="#CED2D4" stroke-width="11.709" stroke-linecap="square"/><use stroke="#CED2D4" mask="url(#b)" stroke-width="2.8" fill="#F4F6F7" xlink:href="#a"/><path fill="#00BCD4" d="M62 30h58v17H62z"/><path d="M72.649 19.841h24.779V15h-27.2v4.841h2.42zm0 21h24.779V36h-27.2v4.841h2.42zm0 21h24.779V57h-27.2v4.841h2.42zm0 20h24.779V77h-27.2v4.841h2.42z" fill="#D8D8D8"/></g></svg>
